X:108
M:2/4
L:1/16
Q:1/4=100
K:A
cdef eaga|edcB c2A2|cdec fedc|dcBA G2E2|\
cdef eaga|edcB c2A2|cdec dcBA|E2G2 A4:|

